X:57
T: ES GIEBT JA KEINE ROSE OHNE DORNEN
N: E0673
O: Europa, Mitteleuropa, Deutschland, Nahegegend, Hennweiler; Nussbaum
R: Liebes - Lied
M: 4/4
L: 1/16
K: G
D4 | B,2D2B2B2B2B2A2G2 | G4F4z4
D4 | A2A2A2A2d2d2c2A2 | B4B4z4
D2D2 | d4d4e4d4 | c8z2
c2B2A2 | G3DD2D2B4A4 | G8z4

